X:1
T:Grande Polka de Concert
T:Grande Polka de Concert
T:Homer Newton Bartlett. Op. 1
C:Homer Newton Bartlett. Op. 1
%%score { ( 1 3 ) | 2 }
L:1/8
Q:1/4=114
M:2/4
K:Gb
V:1 treble nm="Piano" snm="Pno."
V:3 treble 
V:2 bass 
V:1
"^Introduction""^Moderato"!mf! z2 z"_delicato" C/4E/4C/4F,/4 | %1
 z/ z/4 D/<[FB]/A/4 .d/ z/ c/4e/4c/4F/4 | z/ z/4 d/<[fb]/a/4 .d'/ z/ c'/4e'/4c'/4f/4 | %3
[Q:1/4=114] z/[Q:1/4=113]"^.9" z/4[Q:1/4=113]"^.8"!8va(! d'/<[Q:1/4=113]"^.6"[f'b']/[Q:1/4=112]"^.6"a'/4[Q:1/4=112]"^.1""_cresc."!<(! .d''/[Q:1/4=110]"^.7" z/4[Q:1/4=109]"^.9""_rallent." =c'/<[Q:1/4=108]"^.9"[^f'=b']/[Q:1/4=105]"^.3"=a'/4 | %4
[Q:1/4=103]"^.8" .=d''/[Q:1/4=100]"^.5" z/4[Q:1/4=98]"^.6" f'/<[Q:1/4=96]"^.6"[a'e'']/[Q:1/4=89]"^.6"_d''/4[Q:1/4=87] .!fermata!a''[Q:1/4=74]"^.9" z!8va)!!<)! | %5
[Q:1/4=60] x4 | %6
"^Quasi Cadenza"[Q:1/4=114]!p!!8va(! (5:4:5e''/4"_scintillate"[Q:1/4=117]"^.1"a''/4[Q:1/4=118]"^.7"e''/4[Q:1/4=120]d''/4[Q:1/4=121]"^.1"a'/4[Q:1/4=122]"^.1"[I:staff +1]f'/4[Q:1/4=123]"^.3"e'/4[Q:1/4=124]"^.4"d'/4[Q:1/4=125]"^.4"c'/4[Q:1/4=126]"^.3"[I:staff -1] (5:4:5e''/4[Q:1/4=127]a''/4[Q:1/4=127]"^.7"e''/4[Q:1/4=128]"^.4"d''/4[Q:1/4=129]"^.1"a'/4"^cresc."[Q:1/4=129]"^.7"!<(![I:staff +1]f'/4[Q:1/4=130]"^.5"e'/4[Q:1/4=131]"^.2"d'/4[Q:1/4=131]"^.9"c'/4 | %7
[Q:1/4=132]"^.7"[I:staff -1] (5:4:5e''/4[Q:1/4=133]"^.2"a''/4[Q:1/4=133]"^.8"e''/4[Q:1/4=134]"^.3"d''/4[Q:1/4=134]"^.8"a'/4[Q:1/4=135]"^.3"[I:staff +1]f'/4[Q:1/4=136]e'/4[Q:1/4=136]"^.6"d'/4[Q:1/4=137]"^.2"c'/4[Q:1/4=137]"^.8"[I:staff -1] (5:4:5e''/4[Q:1/4=138]"^.2"a''/4[Q:1/4=138]"^.7"e''/4[Q:1/4=139]"^.2"d''/4[Q:1/4=139]"^.6"a'/4[Q:1/4=140]"^.1"[I:staff +1]f'/4[Q:1/4=140]"^.6"e'/4[Q:1/4=141]"^.2"d'/4[Q:1/4=141]"^.7"c'/4 | %8
[Q:1/4=142]"^.2"[I:staff -1] (5:4:5e''/4[Q:1/4=142]"^.7"a''/4[Q:1/4=143]"^.1"e''/4[Q:1/4=143]"^.5"d''/4[Q:1/4=143]"^.9"a'/4[Q:1/4=144]"^.3"[I:staff +1]f'/4[Q:1/4=144]"^.8"e'/4[Q:1/4=145]"^.3"d'/4[Q:1/4=145]"^.8"c'/4!8va)![Q:1/4=146]"^.3"[I:staff -1] (5:4:5e'/4[Q:1/4=146]"^.7"a'/4[Q:1/4=147]e'/4[Q:1/4=147]"^.4"d'/4[Q:1/4=147]"^.8"a/4[Q:1/4=148]"^.2"[I:staff +1]f/4[Q:1/4=148]"^.6"d/4[Q:1/4=149]"^.1"c/4[Q:1/4=149]"^.5"F/4 | %9
[Q:1/4=150][I:staff -1] (5:4:5e/4a/4[Q:1/4=149]"^.9"e/4[Q:1/4=149]"^.8"d/4[Q:1/4=149]"^.7"A/4[Q:1/4=149]"^.4"[I:staff +1]F/4[Q:1/4=149]D/4[Q:1/4=148]"^.4"C/4[Q:1/4=147]"^.6"F,/4[Q:1/4=146]"^.7"[I:staff -1] (5:4:5E/4[Q:1/4=145]"^.8"A/4[Q:1/4=144]"^.7"E/4[Q:1/4=143]"^.6"D/4[Q:1/4=142]"^.2"A,/4[Q:1/4=140]"^.8"[I:staff +1]F,/4[Q:1/4=138]"^.7"D,/4[Q:1/4=136]"^.4"C,/4[Q:1/4=133]"^.8"F,,/4 | %10
[Q:1/4=130]"^.9"[I:staff -1] z[Q:1/4=116]"^.4" !wedge![G__Be][Q:1/4=96]"^.8" !wedge![=G_B=e][Q:1/4=71]"^.5""_rit."!fermata![Acf]!<)! |: %11
[Q:1/4=114]"_dolce""^capriciously"!8va(!{d'f'd'} !>!d{/b}.[ee']{/b} .[ee'] z | %12
{bf'b} !>!f{/=a}.[gg']{/a} .[gg']!>!b'/4c''/4b'/4g'/4 | .d'{/g'}b'"_cresc."{/b'} c''{/c''}b' | %14
!<(!{/b'} =c'{/g'}b'{/e''} .[a'a'']!<)!e'/4f'/4e'/4d'/4 | %15
"_delicato" !>!c'{/f'}b'{/a'} .d''e'/4f'/4e'/4d'/4 | !>!b{/d'}a'{/g'} .d''b/4=c'/4b/4=a/4 | %17
!f! a{/f'}a'{/a} g{/f'}a' |{/e'} [fd']3!8va)! !>!e/4f/4e/4=d/4 |!mf! !>!d{/b}.[ee']{/b} .[ee'] z | %20
{bf'b} !>!f{/=a}.[gg']{/b} .[gg']!8va(!b'/4c''/4b'/4g'/4 | .d'{/g'}b'"_cresc."{/b'} c''{/c''}b' | %22
!<(!{/b'} =c'{/g'}b'{/c''} .[a'a''] z!<)! | %23
!f! [a'a'']/[g'g'']/[f'f'']/[e'e'']/ [=d'=d'']/[e'e'']/[=e'=e'']/[f'f'']/ | %24
 [a'a'']/[g'g'']/[e'e'']/[d'd'']/ [bb']/[aa']/[gg']/[ee']/!8va)! | %25
"_cresc." d/4e/4=e/4f/4g/4=g/4a/4=a/4 b/4c'/4=c'/4d'/4!8va(!=d'/4e'/4=e'/4f'/4 | %26
!<(! g'/4=g'/4a'/4=a'/4b'/4c''/4=c''/4d''/4!<)!!sfz! [b'g'']!8va)! z :: %27
[K:Db]!f!"_stacc.""^grasioso"{/[=e=g]b} !>![fa]!8va(! [a'f'']/[f'd'']/ [d'a']/[af']/[_ge']/[fd']/ | %28
 (3[gc']/d'/_c'/b/=a/ .[gb] !>![dg__b] | %29
 !>![cga].[b'g'']/.[g'e'']/ .[e'c'']/.[c'a']/.[af']/.[ge']/ | %30
 (3[ge']/f'/[ge']/[fd']/[=ec']/ .[fd']!>![e=gb] | %31
 !>![fa] .[a'f'']/.[f'd'']/ .[d'a']/.[af']/.[ge']/.[fd']/ | %32
 [=ac'] [c''=a'']/[=a'f'']/ [f'c'']/[c'a']/[b=g']/[af']/ | %33
 [=g=e']/[f=d']/[=ec']/[=db]/ [c=a]/[db]/[ca]/[Bg]/!8va)! | %34
{/=g} [=Af]/[c=e]/[Af]/[c_g]/"_poco rit."[Q:1/4=114] [gb]/[Q:1/4=107]"^.9"[_ea]/[Q:1/4=104]"^.8"[cg]/[Q:1/4=102]"^.2"[_Ae]/ | %35
[Q:1/4=114]"_a tempo" !>![Fd]!8va(! [a'f'']/[f'd'']/ [d'a']/[af']/[ge']/[fd']/ | %36
 (3[gc']/d'/[gc']/.b/.a/ .[gb]!>![dg__b] | !>![cga] [b'g'']/[g'e'']/ [e'c'']/[c'a']/[af']/[ge']/ | %38
 (3e'/f'/e'/[fd']/[=ec']/ .[fd']!>!!tenuto![dac'] | %39
!f! !>![gb]"_ brill."g''/4a''/4g''/4f''/4 e''/4d''/4c''/4b'/4a'/4g'/4f'/4e'/4 | %40
 d'/4c'/4b/4a/4!8va)!=g/4a/4b/4a/4 _g/4f/4e/4d/4c/4B/4A/4=G/4 | %41
[Q:1/4=114]!<(! B/4[Q:1/4=114]A/4[Q:1/4=114]=G/4[Q:1/4=114]A/4"_poco rit."[Q:1/4=114][E_Gd]/4[Q:1/4=114][I:staff +1]c/4[Q:1/4=114]=B/4[Q:1/4=114]c/4[Q:1/4=113]"^.9"[I:staff -1] !tenuto![af']!<)![Q:1/4=113]"^.6"!tenuto![ge'] |1 %42
[Q:1/4=112]"^.5"{/[fd']e'} [fd']/[Q:1/4=111]"^.4"c'/[Q:1/4=109]"^.8"[fd']/[Q:1/4=107]"^.6"[ge']/[Q:1/4=104]"^.6" .[fd']!sfz![Q:1/4=95]"^.3"[=eb] :|2 %43
"_rit."[Q:1/4=113]"^.6"{/[fd']e'} d'/[Q:1/4=86]"^.4"c'/[Q:1/4=81]"^.8"d'/[Q:1/4=78]"^.7"e'/[Q:1/4=76]"^.3" .[fd']2 || %44
[K:Gb]"_dolce""^capriciously"[Q:1/4=114]!8va(!{d'f'd'} !>!d{/b}.[ee']{/b} .[ee'] z | %45
{bf'b} !>!f{/=a}.[gg']{/a} .[gg']!>!b'/4c''/4b'/4g'/4 | .d'{/g'}b'"_cresc."{/b'} c''{/c''}b' | %47
!<(!{/b'} =c'{/g'}b'{/e''} .[a'a'']!<)!e'/4f'/4e'/4d'/4 | %48
"_delicato" !>!c'{/f'}b'{/a'} .d''e'/4f'/4e'/4d'/4 | !>!b{/d'}a'{/g'} .d''b/4=c'/4b/4=a/4 | %50
!f! a{/f'}a'{/a} g{/f'}a' |{/e'} [fd']3!8va)! !>!e/4f/4e/4=d/4 |!mf! !>!d{/b}.[ee']{/b} .[ee'] z | %53
{bf'b} !>!f{/=a}.[gg']{/b} .[gg']!8va(!b'/4c''/4b'/4g'/4 | .d'{/g'}b'"_cresc."{/b'} c''{/c''}b' | %55
!<(!{/b'} =c'{/g'}b'{/c''} .[a'a''] z!<)! | %56
!f! [a'a'']/[g'g'']/[f'f'']/[e'e'']/ [=d'=d'']/[e'e'']/[=e'=e'']/[f'f'']/ | %57
 [a'a'']/[g'g'']/[e'e'']/[d'd'']/ [bb']/[aa']/[gg']/[ee']/!8va)! | %58
"_cresc." d/4e/4=e/4f/4g/4=g/4a/4=a/4 b/4c'/4=c'/4d'/4!8va(!=d'/4e'/4=e'/4f'/4 | %59
!<(! g'/4=g'/4a'/4=a'/4b'/4c''/4=c''/4d''/4!<)!!sfz! [b'g'']!8va)! z |: %60
[K:B]!f!"^Pomposo" .[Fdf]/.[Fdf]/.[Fdf] [Geg]>[Aea] | [cdc']/[Bdb]/.[Bdb]/.[Aca]/ [Bdb]>[cc'] | %62
 .[dfd']/.[dfd']/.[^^c^^c']/.[dd']/ !>![aa']>[gg'] | [ff']/[ee']/.[cc']/.[Aa]/ .[Gg].[=Ge=g] | %64
 .[Fdf]/.[Fdf]/.[Fdf] [Geg]>[Aea] | [cdc']/[Bdb]/!<(!.[Bdb]/.[Aca]/ [Bdb]>[^B^b] | %66
!8va(! .[c'c'']/.[f'f'']/.[aa']/.[d'd'']/"_animato" .[c'c'']/.[^b^b']/.[=b=b']/.[^e^e']/!<)! | %67
 [gac'g']/[=g=g']/.[ff']/.[=f=f']/!8va)!!>(! .[ee']/.[cc']/.[Aa]/.[G^g]/!>)! | %68
 .[Fdf]/.[Fdf]/.[Fdf] [Geg]>[Aea] | [cdc']/[Bdb]/.[Bdb]/.[Aca]/ [Bdb]>"_cresc."[cc'] | %70
!<(! .[dg^bd']/.[dgbd']/.[^^c^^c']/.[dd']/ [gg']>[^^f^^f'] | %71
 [ff']/[^e^e']/.[=e=e']/.[dd']/ [cc'] z!<)! | %72
!f! .[cegc']/.[^B^b]/.[cc']/.[dd']/ .[ee']/.[^^f^^f']/"_cresc."!8va(!.[aa']/.[gg']/ | %73
 .[ff']/.[bb']/.[d'd'']/.[g'g'']/ .[f'f'']/.[d'd'']/.[bb']/.[gg']/!8va)! | %74
!ff! !>![fac'f']/[^e^e']/[=e=e']/[cc']/ [Aa]/[Ff]/[Ee]/[Cc]/ | %75
!<(! .[B,DFB].[Bdfb] .[bd'f'b']!<)! z :| %76
[K:Ab]"_brilliante" .[egbe']!8va(! !>![e''g'']/4=d''/4_d''/4c''/4 =b'/4_b'/4=a'/4_a'/4g'/4_g'/4f'/4=e'/4 | %77
 !>![e'a']/4=d'/4_d'/4c'/4_c'/4b/4a/4g/4 a z | %78
{_c'b=a} !^!b/!wedge!e'/!^!e/!wedge!e'/ !^!=d/!wedge!e'/!^!_d/!wedge!e'/!8va)! | %79
 !wedge!_c/!^!e'/!wedge!B/!^!e'/!<(! !wedge!A/!wedge!c/!wedge!e/!wedge!a/!<)! | %80
"_brilliante" .[dfad']!8va(![d''f'']/4c''/4=b'/4_b'/4 =a'/4_a'/4g'/4_g'/4f'/4=e'/4_e'/4=d'/4 | %81
 [d'_g']/4c'/4=b/4_b/4=a/4_a/4_g/4f/4 g z | %82
{bag} !wedge!a/!wedge!d'/!wedge!d/!wedge!f'/ !wedge!d/!wedge!a'/!wedge!d/!wedge!d''/ | %83
!f! _g/_g''/ x!8va)! !>![_Gg]2 || %84
[K:B] [F,B,DF]!8va(! g'/4f'/4d'/4b/4 f''!8va)!"_marcato il canto\n   sempre dolce\n" A/G/ | %85
 (3G/A/G/.F/.^E/ F!wedge![Ac]/.G/ | F d'/4c'/4a/4f/4!8va(! f''!8va)! .A/.G/ | %87
 (3[DG]/A/G/.F/.^E/ F>!>![CF=A] | !>![^B,FG]!8va(!^^c'/4^e'/4d'/4g/4 .g'/.[ag']/.[^bg']/.[d'f']/ | %89
 !>![c'^e']2!8va)!!<(! z2!<)! | .[ac']/.[c'e']/.[fa]/.[ac']/ .[cf]/.[fa]/.[Ae]/.[eg]/ | %91
 (3[eg]/a/[eg]/[df]/.[^^c^e]/ .[df]!>![F^c] | [F,B,DF]!8va(! g'/4f'/4d'/4b/4 f''!8va)! A/G/ | %93
 (3G/A/G/.F/.^E/ F !wedge![Ac]/.G/ | F d'/4c'/4a/4f/4!8va(! f''!8va)! .A/.G/ | %95
 (3[DG]/A/G/.F/.^E/ .F .[F=Ad]/.[=EA=c]/ | [D=AB]!<(!^A/4B/4d/4f/4!<)!"_cresc." .b!8va(![bb'] | %97
 [^^f^^f']/[gg']/[aa']/[bb']/ [c'c'']/[^b^b']/[c'c'']/[^^c'^^c'']/ | %98
 [d'd''].[f'd'']/.[f'd'']/ [f'd'']/[e'c'']/[c'a']/[af']/ | .[bd'b'].[bd'b'] .[bd'b']!8va)! z || %100
[K:Gb]"_dolce""^capriciously"!8va(!{bd'b} !>!d{/b}.[ee']{/b} .[ee'] z | %101
{bf'b} !^!f{/=a}.[gg']{/b} .[gg'] !>!b'/4c''/4b'/4g'/4 | .d'{/g'}.b'{/b'} .c''"_cresc."{/c''}.b' | %103
!<(!{/b'} =c'{/g'}b'{/e''} [a'a'']!<)! e'/4f'/4e'/4d'/4 | %104
 !>!c'{/f'}.b'{/a'} .d'' e'/4f'/4e'/4d'/4 | !>!b{/d'}a'{/g'} d'' b/4=c'/4b/4=a/4 | %106
!f! a{/f'}a'{/a} g{/f'}a' |{/e'} !>![fd']3!8va)! !>!e/4f/4e/4=d/4 | %108
!mf! !>!d{/b}.[ee']{/b} .[ee'] z | !>!f[gg'] [gg']!8va(! b'/4c''/4b'/4g'/4 | %110
 .d'{/g'}b'{/b'} c''{/c''}b' |{/b'} =c'{/g'}.b'{/e''} .[a'a''] z | %112
!f! [a'a'']/[g'g'']/[f'f'']/[e'e'']/ [=d'=d'']/[e'e'']/[=e'=e'']/[f'f'']/ | %113
 [a'a'']/[g'g'']/[e'e'']/[d'd'']/ [bb']/[aa']/[gg']/[ee']/!8va)! | %114
 d/4e/4=e/4f/4g/4=g/4a/4=a/4"_cresc."!<(!!8va(! b/4c'/4=c'/4d'/4=d'/4e'/4=e'/4f'/4 | %115
 g'/4=g'/4a'/4=a'/4b'/4c''/4=c''/4d''/4 g''/4d''/4c''/4_c''/4b'/4a'/4_a'/4g'/4 | %116
 f'/4a'/4=g'/4_g'/4f'/4=e'/4_e'/4=d'/4 _d'/4e'/4d'/4=c'/4_c'/4b/4=a/4_a/4 | %117
 !>!g/4a/4g/4a/4g/4a/4g/4a/4 g/4a/4g/4a/4!<)!"_rit."[Q:1/4=114](5:4:5b/4[Q:1/4=108]"^.7"=c'/4[Q:1/4=97]"^.4"b/4[Q:1/4=81]"^.9"=a/4[Q:1/4=62]"^.6"b/4 | %118
!pp!"_a tempo""^leggiero"[Q:1/4=120] !>!f/4b/4d'/4!<(!e'/4f'/4b'/4d''/4e''/4!<)! .f''/4e''/4d''/4b'/4f'/4e'/4d'/4b/4 | %119
!<(! !>!f/4b/4d'/4e'/4f'/4b'/4d''/4e''/4!<)! .f''/4e''/4d''/4b'/4f'/4e'/4d'/4b/4 | %120
!<(! =g/4b/4d'/4=e'/4=g'/4b'/4d''/4=e''/4!<)! .=g''/4e''/4d''/4b'/4g'/4e'/4d'/4b/4 | %121
!<(! f/4b/4d'/4e'/4f'/4b'/4d''/4e''/4!<)! .f''/4e''/4d''/4b'/4f'/4e'/4d'/4b/4 | %122
!<(! !>!=g/4b/4d'/4=e'/4=g'/4b'/4d''/4=e''/4!<)! .=g''/4e''/4d''/4b'/4g'/4e'/4d'/4b/4 | %123
!<(! !>!=g/4b/4d'/4=e'/4=g'/4b'/4d''/4=e''/4!<)!"_accel."[Q:1/4=120] .=g''/4e''/4d''/4b'/4[Q:1/4=120]"^.1"g'/4e'/4[Q:1/4=120]"^.2"d'/4[Q:1/4=120]"^.3"b/4 | %124
[Q:1/4=120]"^.5" !>!e/4[Q:1/4=120]"^.7"f/4[Q:1/4=120]"^.9"=a/4[Q:1/4=121]"^.2"=c'/4[Q:1/4=121]"^.6"e'/4[Q:1/4=122]f'/4[Q:1/4=122]"^.6"=a'/4[Q:1/4=123]"^.2"=c''/4[Q:1/4=123]"^.9" !>!f''/4[Q:1/4=124]"^.7"=e''/4[Q:1/4=125]"^.6"_e''/4[Q:1/4=126]"^.6"=d''/4[Q:1/4=127]"^.8"_d''/4[Q:1/4=129]"^.1"c''/4[Q:1/4=130]"^.5"_c''/4[Q:1/4=132]b'/4 | %125
[Q:1/4=133]"^.7" =a'/4[Q:1/4=135]"^.6"_a'/4[Q:1/4=137]"^.6"=g'/4"_cresc."[Q:1/4=139]"^.8"_g'/4[Q:1/4=142]"^.1"f'/4[Q:1/4=144]"^.7"!<(!=e'/4[Q:1/4=147]"^.4"_e'/4[Q:1/4=150]"^.4"=d'/4[Q:1/4=153]"^.5" _d'/4[Q:1/4=156]"^.9"=c'/4[Q:1/4=160]"^.4"_c'/4[Q:1/4=164]"^.3"b/4[Q:1/4=168]"^.3"=a/4[Q:1/4=172]"^.6"_a/4[Q:1/4=177]"^.1"=g/4[Q:1/4=181]"^.9"_g/4!8va)! | %126
[Q:1/4=187]"^Presto" f/4=e/4_e/4=d/4_d/4=c/4_c/4B/4!<)!!sfz! =A/4_A/4=G/4_G/4(5:4:5F/4=E/4_E/4=D/4_D/4 | %127
[I:staff +1] =C/4_C/4B,/4=A,/4_A,/4=G,/4_G,/4F,/4 =E,/4_E,/4=D,/4_D,/4(7:4:7=C,/4_C,/4B,,/4=A,,/4_A,,/4=G,,/4_G,,/4 | %128
[I:staff -1] z2 z3/2 z/4[Q:1/4=130]!ff![I:staff +1] [B,EG]/4 | %129
[I:staff -1] x/4[I:staff +1] [B,EG]/4[I:staff -1] x/4[I:staff +1] [B,EG]/4[I:staff -1] x/4[I:staff +1] [B,EG]/4[I:staff -1] x/4[I:staff +1] [B,EG]/4[I:staff -1] x/4[I:staff +1] [B,EG]/4[I:staff -1] x/4[I:staff +1] [B,EG]/4[I:staff -1] x/4[I:staff +1] [B,EG]/4[I:staff -1] x/4[I:staff +1] [B,EG]/4 | %130
[I:staff -1] z2 !arpeggio!!^![f=a=c'f'] z ||[K:Bb]!p! z4 | z4 | %133
!p!!8va(! .[fd'f']/"_leggiero e staccato".[fd'f']/.[fd'f']/.[fd'f']/ .[=e=e']/.[ff']/.[gg']/.[aa']/ | %134
 !^![c'c'']/.[bb']/ z3/4 .[g'g'']/4 !^![f'f'']/ z/ z | %135
 .[fe'f']/.[fe'f']/.[fe'f']/.[fe'f']/ .[=e=e']/"_cresc.".[ff']/.[gg']/.[aa']/ | %136
!<(! !^![d'd'']/.[c'c'']/ z3/4 .[g'g'']/4 !^![f'f'']/ z/ z!<)! | %137
!f! .[fd'f']/.[fd'f']/.[fd'f']/.[bb']/ .[d'd'']/.[=e'=e'']/.[f'f'']/.[g'g'']/ | %138
 [a'a'']/[^f'^f'']/[d'd'']/[=b=b']/ [aa']/[^ff']/[gg']/[aa']/ | %139
!>(! [^c'^c'']/[=b=b']/[aa']/[^g^g']/ [=g=g']/[=e=e']/[^cc']/[Aa]/!>)! | %140
!mf! [dd']/[^c^c']/[dd']/[ee']/"_rit."[Q:1/4=130] [gg']/[Q:1/4=129]"^.3"[ff']/[Q:1/4=124]"^.2"[=c=c']/[Q:1/4=109]"^.5" z/ | %141
[Q:1/4=140]!f! .[fd'f']/"_a tempo".[fd'f']/.[fd'f']/.[fd'f']/[Q:1/4=140]"^.1" .[=e=e']/.[ff']/[Q:1/4=140]"^.3".[gg']/[Q:1/4=140]"^.4".[aa']/ | %142
[Q:1/4=140]"^.6" !^![c'c'']/[Q:1/4=140]"^.9".[bb']/[Q:1/4=141]"^.3" z3/4[Q:1/4=142] .[g'g'']/4[Q:1/4=142]"^.2" !^![f'f'']/[Q:1/4=142]"^.9" z/[Q:1/4=143]"^.6" z | %143
[Q:1/4=145]"^.5" .[fe'f']/[Q:1/4=146]"^.6".[fe'f']/[Q:1/4=147]"^.9".[fe'f']/[Q:1/4=149]"^.3".[fe'f']/[Q:1/4=150]"^.9" .[=e=e']/[Q:1/4=152]"^.7".[ff']/[Q:1/4=154]"^.7".[gg']/[Q:1/4=156]"^.8".[aa']/ | %144
[Q:1/4=159]"^.2" !^![d'd'']/[Q:1/4=161]"^.8".[c'c'']/[Q:1/4=164]"^.7" z3/4[Q:1/4=169]"^.4" .[g'g'']/4[Q:1/4=171] !^![f'f'']/[Q:1/4=174]"^.6" z/[Q:1/4=178]"^.5" z | %145
!ff![Q:1/4=187][Q:1/4=187]"^Presto" [f'f'']/b'/[f'f'']/[d'd'']/ [c'c'']/[=b=b']/[_b_b']/[ff']/ | %146
 [^f^f']/[gg']/[=b=b']/"_poco rall."[c'c'']/[Q:1/4=187] [d'd'']/[e'e'']/[=f'f'']/[Q:1/4=186]"^.9"[_g'_g'']/ | %147
[Q:1/4=186]"^.8" [f'a'c''f'']/[Q:1/4=186]"^.5"[=e'=e'']/[Q:1/4=186]"^.1"[_e'_e'']/[Q:1/4=185]"^.6"[c'c'']/[Q:1/4=184]"^.9" [aa']/[Q:1/4=183]"^.9"[ff']/[Q:1/4=182]"^.7"[gg']/[Q:1/4=181]"^.2"[aa']/ | %148
[Q:1/4=179]"^.4" [bb']/[Q:1/4=177]"^.3"[aa']/[Q:1/4=174]"^.8"[bb']/[Q:1/4=171]"^.9"[_c'_c'']/[Q:1/4=168]"^.5""_rit." !tenuto![e'e'']/[Q:1/4=167]"^.3"!tenuto![_d'_d'']/[Q:1/4=158]"^.2"!tenuto![_a_a']/[Q:1/4=132]"^.3" z/!8va)! || %149
[K:Gb][Q:1/4=150]"_dolce""^capriciously"!8va(!{d'f'd'} !>!d{/b}.[ee']{/b} .[ee'] z | %150
{bf'b} !>!f{/=a}.[gg']{/a} .[gg']!>!b'/4c''/4b'/4g'/4 | .d'{/g'}b'"_cresc."{/b'} c''{/c''}b' | %152
!<(!{/b'} =c'{/g'}b'{/e''} .[a'a'']!<)!e'/4f'/4e'/4d'/4 | %153
"_delicato" !>!c'{/f'}b'{/a'} .d''e'/4f'/4e'/4d'/4 | !>!b{/d'}a'{/g'} .d''b/4=c'/4b/4=a/4 | %155
!f! a{/f'}a'{/a} g{/f'}a' |{/e'} [fd']3!8va)! !>!e/4f/4e/4=d/4 |!mf! !>!d{/b}.[ee']{/b} .[ee'] z | %158
{bf'b} !>!f{/=a}.[gg']{/b} .[gg']!8va(!b'/4c''/4b'/4g'/4 | .d'{/g'}b'"_cresc."{/b'} c''{/c''}b' | %160
!<(!{/b'} =c'{/g'}b'{/c''} .[a'a''] z!<)! | %161
!f! [a'a'']/[g'g'']/[f'f'']/[e'e'']/ [=d'=d'']/[e'e'']/[=e'=e'']/[f'f'']/ | %162
 [a'a'']/[g'g'']/[e'e'']/[d'd'']/ [bb']/[aa']/[gg']/[ee']/!8va)! | %163
"_martellato" [=c=c']/[dd']/[ff']/[ee']/ [dd']/[_c_c']/[Bb]/[Aa]/ | %164
!ff! [GBdg]"_pesante"[=A=d^f=a] [d=g=b=d'][=fc'_d'f'] | %165
"_rall."[Q:1/4=150]!8va(! [gbd'g'][Q:1/4=149]"^.7"[=a=d'^f'=a'][Q:1/4=147]"^.7" [d'=g'=b'=d''][Q:1/4=141]"^.9"[=f'c''_d''f''] | %166
[Q:1/4=130]"^.1" [g'b'd''g'']!8va)![Q:1/4=139] z[Q:1/4=146]"^.4" z2 | %167
!ff![Q:1/4=160]{/[Bdg]} [Bdg][Bdg] [Bdg][Bdg] | [Bdg] z z2 | !arpeggio![Bdgb]2 z2 | %170
!ff!{/!fermata![B,DG]} !fermata![B,DG]4 |] %171
V:2
 z4 | .[D,A,] z z2 |[K:treble] .[DA] z z2 | .[da] z z2 | z c'- !fermata![dc'] z | x4 | x4 | x4 | %8
 x4 |[K:bass] x4 | D,,!wedge![DE] !wedge![D=E]{/!fermata!D,}!fermata![DF] |: G,,[=CGB] [DGB] z | %12
 D,,[K:treble] [EG=A=c] [DGBd] z |[K:bass] G,,[DGB] E,,[DE=GB] | A,,.[=CEGB] .[CEGA] z | %15
 .D,,[K:treble] !arpeggio![CDFB] [CDFA] z |[K:bass] G,,!>!.[B,DA] .[B,DG] z | %17
!ped! [A,DF]A,,!ped-up!!ped! [G,A,=CE]A,,!ped-up! |!ped! .[D,,D,][K:treble] x2!ped-up! x | %19
[K:bass] G,,[=CGB] [DGB] z | D,,[K:treble] [EG=A=c] [DGBd] z |[K:bass] G,,[DGB] E,,[DE=GB] | %22
 A,,.[=CEGB] .[CEGA] z | [C,,C,][A,EA] [=C,,=C,][=A,=CEG] | D,, .[B,DG]/.[B,DG]/ [DGB][B,DG] | %25
 D,,[K:treble]"_marc." [Ec]/[__EG]/ .[DFB].[CDFA] |[K:bass] !>![G,B,DG].[D,D] .[G,,G,] z :: %27
[K:Db] D,, [F,A,D]/[F,A,D]/ [A,DF][A,DF] | G,, [B,DG]/[B,DG]/ [B,DG] !>![E,,E,] | %29
 !>![A,,,A,,][E,A,C]/[E,A,C]/ [A,CG][A,CG] | [D,,D,] .[A,DF]/.[A,DF]/ [A,DF]!>![A,,,A,,] | %31
 !>![D,,,D,,] .[F,A,D]/.[F,A,D]/ [A,DF][A,DF] | %32
!ped! !>![C,,C,] .[=A,CF]/.[A,CF]/ [CF=A][CFA]!ped-up! | %33
 [C,,C,] [=G,B,C=E]/[G,B,CE]/ .[B,CE].[B,CE] | F,,[=A,CF] !arpeggio![A,,G,C]2 | %35
 [D,,,D,,] [F,A,D]/[F,A,D]/ [A,DF][A,DF] | [G,,,G,,] [B,DG]/[B,DG]/ [B,DG]!>![E,,E,] | %37
 !>![A,,,A,,] [E,A,C]/[E,A,C]/ [A,CG][A,CG] | %38
 [D,,D,] [F,A,D]/[F,A,D]/ [A,DF][K:treble]!>!!tenuto![FAc] | %39
[K:bass] !>!G,,[K:treble]"_marc." =D/E/ cB | !>!A =E/F/ D.A, |[K:bass] A,,[K:treble] x z [Ac] |1 %42
[K:bass] D,.[A,DF]/.[A,DF]/ .[A,DF][=G,D=E] :|2 .[D,,D,].[A,DF] !arpeggio![D,A,_CF]2 || %44
[K:Gb] G,,[=CGB] [DGB] z | D,,[K:treble] [EG=A=c] [DGBd] z |[K:bass] G,,[DGB] E,,[DE=GB] | %47
 A,,.[=CEGB] .[CEGA] z | .D,,[K:treble] !arpeggio![CDFB] [CDFA] z | %49
[K:bass] G,,!>!.[B,DA] .[B,DG] z |!ped! [A,DF]A,,!ped-up!!ped! [G,A,=CE]A,,!ped-up! | %51
!ped! .[D,,D,][K:treble] x2!ped-up! x |[K:bass] G,,[=CGB] [DGB] z | %53
 D,,[K:treble] [EG=A=c] [DGBd] z |[K:bass] G,,[DGB] E,,[DE=GB] | A,,.[=CEGB] .[CEGA] z | %56
 [C,,C,][A,EA] [=C,,=C,][=A,=CEG] | D,, .[B,DG]/.[B,DG]/ [DGB][B,DG] | %58
 D,,[K:treble]"_marc." [Ec]/[__EG]/ .[DFB].[CDFA] |[K:bass] !>![G,B,DG].[D,D] .[G,,G,] z |: %60
[K:B] [B,,,B,,][F,B,D] [F,,,F,,][F,A,E] | B,,, .[F,B,D]/.[F,B,D]/ .[F,B,D][F,,F,] | %62
 !>![B,,,B,,] [F,B,D]/[F,B,D]/ [F,B,D][F,B,D] | A,,, [F,A,E]/[F,A,E]/ [F,A,E][F,A,E] | %64
 [B,,,B,,][F,B,D] [A,,,A,,][F,B,D] | [G,,,G,,] .[G,B,D]/.[G,B,D]/ .[G,B,D]!>![=D,F,^B,] | %66
 !>![C,F,A,C]C,, [G,B,C^E]C,, | F,, [F,A,^E]/[F,A,E]/ [F,A,E][F,A,E] | %68
 [B,,,B,,][F,B,D] [F,,,F,,][F,A,E] | B,,, .[F,B,D]/.[F,B,D]/ .[F,B,D]!>![=A,,,=A,,] | %70
 [G,,,G,,] .[G,^B,F]/.[G,B,F]/ .[G,B,F].[G,B,F] | C,, .[G,CE]/.[G,CE]/ .[G,CE].[G,CE] | %72
 [E,,E,] [G,CE]/[G,CE]/ [G,CE][^E,,^E,] | [F,,F,] [F,B,D]/[F,B,D]/ [B,DF][B,DF] | %74
 !>![A,CEF]/.[^E,^E]/.[=E,=E]/.[C,C]/ .[A,,A,]/.[F,,F,]/.[E,,E,]/.[C,,C,]/ | %75
 .[B,,,B,,]2 .[B,,,,B,,,] z :|[K:Ab] E,, [B,DEG]/[B,DEG]/ [B,DEG][B,DEG] | %77
 A,, [_CEA]/[CEA]/ [CEA][CEA] | E,,[B,EG] E,,[B,EG] | A,, [_CEA]/[CEA]/ [CE][CE] | %80
 D,,[A,_CDF]/[A,CDF]/ [A,CDF][A,CDF] | _G,,[B,D_G]/[B,DG]/ [B,DG][B,DG] | D,,[A,DF] D,,[A,DF] | %83
 [_G,B,D_G] [D,D]/[I:staff -1][dd']/[I:staff +1] !>![_G,,G,]2 ||[K:B] [B,,,B,,][F,B,D] F[F,B,D] | %85
 A,, [F,A,CE]/[F,A,CE]/ [F,A,CE][F,A,CE] | F,,[F,A,C] F[F,A,CE] | %87
 [B,,,B,,] .[F,B,D]/.[F,B,D]/ .[F,B,D]!>![D,,D,] | !>![G,,,G,,]D, [G,^B,F][G,B,DF] | %89
 [C,,C,] G, [CEG] z | F,,.[C,F,A,]/.[C,F,A,]/ .[F,A,C].[A,CF] | %91
 B,,.[F,B,D]/.[F,B,D]/ .[F,B,D]!>!.[F,A,E] | [B,,,B,,][F,B,D] F[F,B,D] | %93
 A,, [F,A,CE]/[F,A,CE]/ [F,A,CE][F,A,CE] | F,,[F,A,C] F[F,A,CE] | %95
 [B,,,B,,] .[F,B,D]/.[F,B,D]/ .[F,B,D] z | [B,,,B,,] [=A,B,D]/[A,B,D]/ F,[A,B,D] | %97
 E,[G,CE] C,[=G,B,E] | F,, [F,A,E]/[F,A,E]/ [F,A,E][F,A,E] | [B,,,B,,].[B,DF] .[B,DF] z || %100
[K:Gb] G,,[=CGB] [DGB] z | D,,[K:treble] [EG=A=c] [DGBd] z |[K:bass] G,,[DGB] E,,[D=EGB] | %103
 A,,.[=CEGB] .[CEGA] z | D,,[K:treble] !arpeggio![CDFB] [CDFA] z | %105
[K:bass] G,,!>!.[B,DA] .[B,DG] z |!ped! [A,DF]G,,!ped-up!!ped! [G,A,=CE]A,,!ped-up! | %107
!ped! [D,,D,][K:treble] x2!ped-up! z |[K:bass] G,,[=CGB] [DGB] z | %109
 D,,[K:treble] [EG=A=c] [DGBd] z |[K:bass] G,,[DGB] E,,"^cresc."[DE=GB] | A,,[=CEGB] .[CEGA] z | %112
 [C,,C,][A,EA] [=C,,=C,][=A,=CEG] | [D,,D,] .[B,DG]/.[B,DG]/ [DGB][B,DG] | %114
!ped! D,, .[CDF]/.[CDF]/ .[CDF].[CDF]!ped-up! | %115
!ped! .[G,,,G,,] .[B,DG]/.[B,DG]/ .[B,DG].[B,DG]!ped-up! |!ped! .A,.[CDF] .D,.[CDF]!ped-up! | %117
!ped! .G,, .[B,DG]/.[B,DG]/ .[B,DG]!^![=E,,=E,]!ped-up! | %118
!ped! [F,,F,] .[B,DF]/.[B,DF]/ .[B,DF].[B,DF]!ped-up! | %119
!ped! [F,,F,] .[B,DF]/.[B,DF]/ .[B,DF].[B,DF]!ped-up! | %120
!ped! [F,,F,] .[B,D=E]/.[B,DE]/ .[B,DE].[B,DE]!ped-up! | %121
!ped! [F,,F,] .[B,DF]/.[B,DF]/ [B,DF][B,DF]!ped-up! | %122
!ped! .[G,,G,] .[B,=C=E]/.[B,CE]/ .[B,CE].[B,CE]!ped-up! | %123
!ped! [=C,,=C,] .[B,=C=E]/.[B,CE]/ .[B,CE].[B,CE]!ped-up! | %124
!ped! .[F,,F,] .[F,=A,=CE]/.[F,A,CE]/ .[F,A,CE].[^F,A,CE]!ped-up! | %125
!ped! !^![=G,=CE]!^![A,CE] !^![=A,CE]!^![G,B,E]!ped-up! |!ped! !^![F,=A,E]2 !^![G,,G,]2!ped-up! | %127
!ped! [F,,F,] z !^![G,,,G,,]2!ped-up! |!sfz!!ped! !^![F,,,F,,] z z2!ped-up! | %129
!ped! [=A,=CF]/4 x/4 [A,CF]/4 x/4 [A,CF]/4 x/4 [A,CF]/4 x/4 [A,CF]/4 x/4 [A,CF]/4 x/4 [A,CF]/4 x/4 [A,CF]/4 x/4!ped-up! | %130
!ped! !^![=A,=CF] z !arpeggio!!^![F,,=C,A,] z!ped-up! || %131
[K:Bb] [B,,,B,,] [F,B,D]/[F,B,D]/ .[F,B,D].[F,B,D] | [B,,,B,,] [F,B,D]/[F,B,D]/ .[F,B,D].[F,B,D] | %133
 [B,,,B,,][F,B,D] F,,[F,B,D] | B,,[F,B,D] F,,[F,B,D] | C,[F,A,E] F,,[F,A,E] | %136
 A,,[F,A,E] F,,[F,A,E] | [B,,,B,,][F,B,D] B,,[F,B,D] | [D,,D,][A,D^F] ^F,[A,DF] | %139
 =E,[A,^CG] A,,[A,CG] | [D,,D,][A,D^F] !arpeggio![F,CEA]>[F,=F] | %141
 [B,,,B,,]!arpeggio!.[F,B,DF] F,,!arpeggio!.[F,B,DF] | %142
 B,,!arpeggio!.[F,B,DF] F,,!arpeggio!.[F,B,DF] | C,!arpeggio!.[F,A,EF] F,,!arpeggio!.[F,A,EF] | %144
 C,!arpeggio!.[F,A,EF] F,,!arpeggio!.[F,A,EF] | %145
 [B,,,B,,] [F,_A,B,D]/[F,A,B,D]/ [F,A,B,D][F,A,B,D] | [E,,E,][G,CE] [C,,C,]!arpeggio!!>![_G,B,CE] | %147
 [F,,,F,,][K:treble] [Ee]/[Cc]/ [A,A]/[F,F]/[K:bass] [E,E]/[C,C]/ | %148
 [B,,B,][B,D] [_D,_A,_CF]>[K:treble]!>!!tenuto![_D_d] ||[K:Gb][K:bass] G,,[=CGB] [DGB] z | %150
 D,,[K:treble] [EG=A=c] [DGBd] z |[K:bass] G,,[DGB] E,,[DE=GB] | A,,.[=CEGB] .[CEGA] z | %153
 .D,,[K:treble] !arpeggio![CDFB] [CDFA] z |[K:bass] G,,!>!.[B,DA] .[B,DG] z | %155
!ped! [A,DF]A,,!ped-up!!ped! [G,A,=CE]A,,!ped-up! |!ped! .[D,,D,][K:treble] x2!ped-up! x | %157
[K:bass] G,,[=CGB] [DGB] z | D,,[K:treble] [EG=A=c] [DGBd] z |[K:bass] G,,[DGB] E,,[DE=GB] | %160
 A,,.[=CEGB] .[CEGA] z | [C,,C,][A,EA] [=C,,=C,][=A,=CEG] | %162
 [D,,D,][K:treble] [Ee]/[Dd]/ [B,B]/[A,A]/[G,G]/[E,E]/ | %163
[K:bass] [__E,__E]/[D,D]/[=C,,=C,]/[D,,D,]/ [F,,F,]/[A,,A,]/[D,D]/[F,F]/ | %164
 !arpeggio![G,B,D][=D,^F,=A,=D] [=B,,D,=G,=B,][_D,=F,_A,] | %165
 [G,,B,,D,G,][=D,,^F,,=A,,=D,] [=G,,,=E,,=G,,][D,,,_D,,] | [G,,,G,,] z z2 | %167
 [G,B,DG][G,B,DG] [G,B,DG][G,B,DG] | [G,B,DG] z z2 | !arpeggio![G,,D,B,]2 z2 | %170
{/!fermata![G,,,G,,]} !fermata![G,,D,G,]4 |] %171
V:3
 x4 | x4 | x4 | x3/4!8va(! x13/4 | x4!8va)! | x4 |!8va(! x4 | x4 | x2!8va)! x2 | x4 | x4 |: %11
!8va(! x4 | x4 | x4 | x4 | x4 | x4 | x4 | %18
 z [e''a'']/4a'/4[I:staff +1]f'/4c'/4[I:staff -1] [e'a']/4a/4[I:staff +1]f/4c/4!8va)![I:staff -1] z | %19
 x4 | x3!8va(! x | x4 | x4 | x4 | x4!8va)! | x3!8va(! x | x3!8va)! x ::[K:Db] x!8va(! x3 | x4 | %29
 x4 | x4 | x4 | x4 | x4!8va)! | x4 | x!8va(! x3 | x4 | x4 | g x x2 | x4 | x!8va)! x3 | x4 |1 x4 :|2 %43
 f2 x2 ||[K:Gb]!8va(! x4 | x4 | x4 | x4 | x4 | x4 | x4 | %51
 z [e''a'']/4a'/4[I:staff +1]f'/4c'/4[I:staff -1] [e'a']/4a/4[I:staff +1]f/4c/4!8va)![I:staff -1] z | %52
 x4 | x3!8va(! x | x4 | x4 | x4 | x4!8va)! | x3!8va(! x | x3!8va)! x |:[K:B] x4 | x4 | x4 | x4 | %64
 x4 | x4 |!8va(! x4 | x2!8va)! x2 | x4 | x4 | x4 | x4 | x3!8va(! x | x4!8va)! | x4 | x4 :| %76
[K:Ab] x!8va(! x3 | x4 | x4!8va)! | x4 | x!8va(! x3 | x4 | x4 | x2!8va)! x2 || %84
[K:B] x!8va(! x2!8va)! x | x4 | x2!8va(! x!8va)! x | x4 | x!8va(! x3 | %89
 z/4 e''/4c''/4g'/4^e'/4c'/4!8va)!g/4^e/4 c/4^B/4c/4d/4e/4f/4a/4g/4 | x4 | x4 | %92
 x!8va(! x2!8va)! x | x4 | x2!8va(! x!8va)! x | x4 | x3!8va(! x | x4 | x4 | x3!8va)! x || %100
[K:Gb]!8va(! x4 | x4 | x4 | x4 | x4 | x4 | x4 | %107
 z [e''a'']/4a'/4[I:staff +1]f'/4c'/4[I:staff -1] [e'a']/4a/4[I:staff +1]f/4c/4!8va)![I:staff -1] x | %108
 x4 | x3!8va(! x | x4 | x4 | x4 | x4!8va)! | x2!8va(! x2 | x4 | x4 | x4 | x4 | x4 | x4 | x4 | x4 | %123
 x4 | x4 | x4!8va)! | x4 | x4 | x4 | x4 | x4 ||[K:Bb] x4 | x4 |!8va(! x4 | x4 | x4 | x4 | x4 | x4 | %139
 x4 | x4 | x4 | x4 | x4 | x4 | x4 | x4 | x4 | x4!8va)! ||[K:Gb]!8va(! x4 | x4 | x4 | x4 | x4 | x4 | %155
 x4 | %156
 z [e''a'']/4a'/4[I:staff +1]f'/4c'/4[I:staff -1] [e'a']/4a/4[I:staff +1]f/4c/4!8va)![I:staff -1] z | %157
 x4 | x3!8va(! x | x4 | x4 | x4 | x4!8va)! | x4 | x4 |!8va(! x4 | x!8va)! x3 | x4 | x4 | x4 | x4 |] %171

